app/src/main/assets/symbols/osmc/mine.svg

<?xml version="1.0" encoding="UTF-8" standalone="no"?>
<svg
   xmlns:dc="http://purl.org/dc/elements/1.1/"
   xmlns:cc="http://creativecommons.org/ns#"
   xmlns:rdf="http://www.w3.org/1999/02/22-rdf-syntax-ns#"
   xmlns:svg="http://www.w3.org/2000/svg"
   xmlns="http://www.w3.org/2000/svg"
   xmlns:sodipodi="http://sodipodi.sourceforge.net/DTD/sodipodi-0.dtd"
   xmlns:inkscape="http://www.inkscape.org/namespaces/inkscape"
   viewBox="0 0 32 32"
   version="1.1"
   id="svg5349"
   height="32"
   width="32"
   sodipodi:docname="mine.svg"
   inkscape:version="0.92.1 r15371">
  <sodipodi:namedview
     pagecolor="#ffffff"
     bordercolor="#666666"
     borderopacity="1"
     objecttolerance="10"
     gridtolerance="10"
     guidetolerance="10"
     inkscape:pageopacity="0"
     inkscape:pageshadow="2"
     inkscape:window-width="2560"
     inkscape:window-height="1016"
     id="namedview4613"
     showgrid="false"
     inkscape:zoom="25.71875"
     inkscape:cx="16"
     inkscape:cy="16"
     inkscape:window-x="0"
     inkscape:window-y="27"
     inkscape:window-maximized="1"
     inkscape:current-layer="svg5349" />
  <defs
     id="defs5351" />
  <metadata
     id="metadata5354">
    <rdf:RDF>
      <cc:Work
         rdf:about="">
        <dc:format>image/svg+xml</dc:format>
        <dc:type
           rdf:resource="http://purl.org/dc/dcmitype/StillImage" />
        <dc:title />
      </cc:Work>
    </rdf:RDF>
  </metadata>
  <g
     id="layer1"
     transform="matrix(0.8,0,0,0.8,3.2,3.2)">
    <path
       d="m 27.319494,13.345549 c 0.174329,0.175103 0.456757,0.175103 0.631086,0 l 2.918674,-2.938422 c 0.174328,-0.175484 0.174328,-0.4597857 0,-0.6348887 L 27.878261,6.7610169 c 0.359695,-0.2364073 0.813407,-0.4781784 0.615478,-0.678569 L 26.44709,4.0229853 C 26.249161,3.8233612 26.008604,4.2796998 25.773374,4.6425483 L 22.782,1.6313268 c -0.173949,-0.1751022 -0.456376,-0.1751022 -0.630705,0 L 19.23224,4.5697487 c -0.174329,0.1754855 -0.174329,0.459787 0,0.6352723 L 22.189358,8.1817589 15.580091,14.559386 8.4752446,7.7043465 10.704216,5.4602029 c 0.136646,-0.137553 0.107337,-0.3919684 -0.06699,-0.5674538 L 7.7181713,1.9547104 C 7.5438425,1.7788418 7.291104,1.7493389 7.1544577,1.8868924 L 4.8912293,4.1651368 C 4.6563804,3.8022882 4.4154413,3.3463329 4.2175135,3.5455739 L 2.1708639,5.6054196 C 1.9729361,5.8054269 2.4262668,6.0475813 2.7859625,6.2839885 L 1.081119,8.0001434 c -0.057475,0.057857 -0.07879,0.1375532 -0.079171,0.2222302 0,7.659e-4 -7.611e-4,0.00115 -7.611e-4,0.00231 v 0.0038 c 0,0.017625 -0.00267,0.033715 0,0.051722 v 3.0299964 c 0,0.190046 0.1526327,0.343308 0.3410448,0.342924 h 3.008122 c 0.1065767,0.01647 0.2093467,-0.0076 0.2805246,-0.07931 L 6.3018455,9.8921453 13.061842,16.990106 2.4369245,27.242973 C 2.137749,27.543367 2.1072986,28.000088 2.3676495,28.262934 L 4.413538,30.32163 c 0.2611124,0.262845 0.7144432,0.231426 1.0128574,-0.06935 l 10.1331426,-10.639856 9.67867,10.16206 c 0.298414,0.300393 0.751745,0.332196 1.012477,0.06935 l 2.046268,-2.058312 c 0.260732,-0.263613 0.229901,-0.719567 -0.06966,-1.019962 l -10.15065,-9.795755 6.28649,-6.601008 2.956357,2.976737 z"
       id="path4138"
       inkscape:connector-curvature="0" />
  </g>
</svg>

<?xml version="1.0" encoding="UTF-8"?>
<svg id="svg5349" width="32" height="32" version="1.1" viewBox="0 0 32 32" xmlns="http://www.w3.org/2000/svg" xmlns:cc="http://creativecommons.org/ns#" xmlns:dc="http://purl.org/dc/elements/1.1/" xmlns:rdf="http://www.w3.org/1999/02/22-rdf-syntax-ns#">
 <metadata id="metadata5354">
  <rdf:RDF>
   <cc:Work rdf:about="">
    <dc:format>image/svg+xml</dc:format>
    <dc:type rdf:resource="http://purl.org/dc/dcmitype/StillImage"/>
    <dc:title/>
   </cc:Work>
  </rdf:RDF>
 </metadata>
 <g id="layer1" transform="matrix(.8 0 0 .8 3.2 3.2)">
  <path id="path4138" d="m27.319 13.346c0.17433 0.1751 0.45676 0.1751 0.63109 0l2.9187-2.9384c0.17433-0.17548 0.17433-0.45979 0-0.63489l-2.991-3.0112c0.3597-0.23641 0.81341-0.47818 0.61548-0.67857l-2.0466-2.0595c-0.19793-0.19962-0.43849 0.25671-0.67372 0.61956l-2.9914-3.0112c-0.17395-0.1751-0.45638-0.1751-0.6307 0l-2.9191 2.9384c-0.17433 0.17549-0.17433 0.45979 0 0.63527l2.9571 2.9767-6.6093 6.3776-7.1048-6.855 2.229-2.2441c0.13665-0.13755 0.10734-0.39197-0.06699-0.56745l-2.9191-2.938c-0.17433-0.17587-0.42707-0.20537-0.56371-0.067818l-2.2632 2.2782c-0.23485-0.36285-0.47579-0.8188-0.67372-0.61956l-2.0466 2.0598c-0.19793 0.20001 0.2554 0.44216 0.6151 0.67857l-1.7048 1.7162c-0.057475 0.057857-0.07879 0.13755-0.079171 0.22223 0 7.659e-4 -7.611e-4 0.00115-7.611e-4 0.00231v0.0038c0 0.017625-0.00267 0.033715 0 0.051722v3.03c0 0.19005 0.15263 0.34331 0.34104 0.34292h3.0081c0.10658 0.01647 0.20935-0.0076 0.28052-0.07931l1.671-1.6817 6.76 7.098-10.625 10.253c-0.29918 0.30039-0.32963 0.75712-0.069275 1.02l2.0459 2.0587c0.26111 0.26284 0.71444 0.23143 1.0129-0.06935l10.133-10.64 9.6787 10.162c0.29841 0.30039 0.75174 0.3322 1.0125 0.06935l2.0463-2.0583c0.26073-0.26361 0.2299-0.71957-0.06966-1.02l-10.151-9.7958 6.2865-6.601 2.9564 2.9767z"/>
 </g>
</svg>
